src/assets/images/currencies/etc.svg

<svg height="32" viewBox="0 0 32 32" width="32" xmlns="http://www.w3.org/2000/svg"><path d="m20.6815287 16.9490446-4.8407644 7.0509554-4.8407643-7.0509554 4.8407643 2.955414zm-4.8399682-3.9044586 4.8367834 2.955414-4.8367834 2.955414-4.8415605-2.955414zm-.0007962-5.044586 4.8407644 7.0509554-4.8407644-2.955414-4.8407643 2.955414z" fill="#ff9580" fill-rule="evenodd"/></svg>

<svg xmlns="http://www.w3.org/2000/svg" width="32" height="32" viewBox="0 0 32 32">
  <path fill="#FF9580" fill-rule="evenodd" d="M20.6815287,16.9490446 L15.8407643,24 L11,16.9490446 L15.8407643,19.9044586 L20.6815287,16.9490446 Z M15.8415605,13.044586 L20.6783439,16 L15.8415605,18.955414 L11,16 L15.8415605,13.044586 Z M15.8407643,8 L20.6815287,15.0509554 L15.8407643,12.0955414 L11,15.0509554 L15.8407643,8 Z"/>
</svg>
